X:1879
L:1/8
Q:1/4=120
M:2/4
K:G
 GBBd | gddc | B2 d/c/B/A/ | BB B2 | GBBd | gddc | B2 d/c/B/A/ | GG G2 :: dB g2 | cA a2 | 
 B2 dc/B/ | A/G/F/E/ D2 | dBgB | cAaA | B2 d/c/B/A/ | GG G2 :: (G,B,).B,.B, | (A,C).C.C | 
 B,D E/D/C/B,/ | A,A, A,2 | (G,B,).B,.B, | (A,C).C.C | B,D D/C/B,/A,/ | G,G, G,2 :|

